; generated by PrusaSlicer 2.9.4 on 2026-05-04 at 12:03:42 UTC

; 

; external perimeters extrusion width = 0.45mm
; perimeters extrusion width = 0.45mm
; infill extrusion width = 0.45mm
; solid infill extrusion width = 0.45mm
; top infill extrusion width = 0.42mm
; support material extrusion width = 0.40mm
; first layer extrusion width = 0.50mm

M73 P0 R90
M73 Q0 S101
M201 X10000 Y10000 Z400 E5000 ; sets maximum accelerations, mm/sec^2
M203 X350 Y350 Z12 E100 ; sets maximum feedrates, mm / sec
M204 P7000 R2500 T7000 ; sets acceleration (P, T) and retract acceleration (R), mm/sec^2
M205 X10.00 Y10.00 Z2.00 E10.00 ; sets the jerk limits, mm/sec
M205 S0 T0 ; sets the minimum extruding and travel feed rate, mm/sec

M486 S0
M486 AENCLOS~1.STL
M486 S-1

;TYPE:Custom
M17 ; enable steppers
M862.1 P0.4 A0 F1 ; nozzle check
M862.3 P "COREONE" ; printer model check
M862.5 P2 ; g-code level check
M862.6 P"Input shaper" ; FW feature check
M115 U6.4.0+11974

M555 X81.1699 Y32 W69.6601 H150

G90 ; use absolute coordinates
M83 ; extruder relative mode


M140 S40 ; set bed temp


M109 R170 ; wait for temp

M84 E ; turn off E motor

G28 ; home all without mesh bed level


M141 S20 ; set nominal chamber temp


M106 S70
G0 Z40 F10000
M104 T0 S170
M190 R40 ; wait for bed temp
M107

G29 G ; absorb heat

M109 R170 ; wait for MBL temp

M302 S155 ; lower cold extrusion limit to 155C


G1 E-2 F2400 ; retraction


M84 E ; turn off E motor

G29 P9 X208 Y-2.5 W32 H4

;
; MBL
;
M84 E ; turn off E motor
G29 P1 ; invalidate mbl & probe print area
G29 P1 X150 Y0 W100 H20 C ; probe near purge place
G29 P3.2 ; interpolate mbl probes
G29 P3.13 ; extrapolate mbl outside probe area
G29 A ; activate mbl

; prepare for purge
M104 S210
G0 X249 Y-2.5 Z15 F4800 ; move away and ready for the purge
M109 S210

G92 E0
M569 S0 E ; set spreadcycle mode for extruder

M591 S0 ; disable stuck detection

;
; Extrude purge line
;
G92 E0 ; reset extruder position
G1 E2 F2400 ; deretraction after the initial one
G0 E5 X235 Z0.2 F500 ; purge
G0 X225 E4 F500 ; purge
G0 X215 E4 F650 ; purge
G0 X205 E4 F800 ; purge
G0 X202 Z0.05 F8000 ; wipe, move close to the bed
G0 X199 Z0.2 F8000 ; wipe, move quickly away from the bed

M591 R ; restore stuck detection

G92 E0
M221 S100 ; set flow to 100%
G21 ; set units to millimeters
G90 ; use absolute coordinates
M83 ; use relative distances for extrusion
M572 S0.036 ; Filament gcode

M142 S36 ; set heatbreak target temp
M106 S255
;LAYER_CHANGE
;Z:0.2
;HEIGHT:0.2
G1 E-.7 F2700
G1 Z.4 F720
G1 X89.539 Y44.624 F21000
G1 Z.2 F720
G1 E.7 F1500
M204 P500
;TYPE:Skirt/Brim
;WIDTH:0.5
G1 F900
G3 X102.368 Y36.658 I12.872 J6.416 E.63444
G1 X129.632 Y36.658 E1.08801
G3 X143.949 Y50.236 I-.042 J14.382 E.86775
G1 X145.559 Y80.357 E1.20374
G2 X146.112 Y90.627 I30.63 J3.5 E.41236
G1 X150.159 Y166.235 E3.02158
G3 X135.842 Y181.342 I-14.345 J.743 E.92896
M73 P0 R90
G1 X96.156 Y181.342 E1.58374
G3 X81.841 Y166.234 I.03 J-14.364 E.92893
G1 X85.888 Y90.627 E3.02154
G2 X86.441 Y80.357 I-30.078 J-6.77 E.41236
G1 X88.051 Y50.234 E1.20382
G3 X89.512 Y44.678 I14.36 J.806 E.23081
M73 Q0 S101
M204 P3000
M204 T7000
G1 X89.922 Y44.88 F21000
M204 P500
G1 F900
G3 X102.374 Y37.115 I12.487 J6.159 E.6168
G1 X129.626 Y37.115 E1.08754
G3 X143.493 Y50.266 I-.035 J13.924 E.84055
G1 X145.101 Y80.365 E1.20286
G2 X145.656 Y90.666 I30.747 J3.51 E.4136
G1 X149.702 Y166.254 E3.02078
G3 X135.837 Y180.885 I-13.887 J.725 E.89976
G1 X96.162 Y180.885 E1.5833
G3 X82.298 Y166.254 I.023 J-13.906 E.89972
G1 X86.344 Y90.666 E3.02078
G2 X86.899 Y80.365 I-30.192 J-6.791 E.4136
G1 X88.507 Y50.265 E1.2029
G3 X89.895 Y44.934 I13.902 J.774 E.22129
M204 P3000
G1 X90.306 Y45.134 F21000
M204 P500
G1 F900
G3 X102.38 Y37.572 I12.102 J5.904 E.59908
G1 X129.621 Y37.572 E1.0871
G3 X143.037 Y50.297 I-.029 J13.466 E.81336
G1 X144.644 Y80.373 E1.20194
G2 X145.2 Y90.705 I30.864 J3.519 E.41485
G1 X149.246 Y166.274 E3.02002
G3 X135.831 Y180.428 I-13.431 J.705 E.87059
G1 X96.168 Y180.428 E1.58282
G3 X82.754 Y166.273 I.016 J-13.448 E.87059
G1 X86.8 Y90.705 E3.01998
G2 X87.356 Y80.373 I-30.308 J-6.813 E.41485
M73 P0 R90
G1 X88.963 Y50.296 E1.20198
G3 X90.28 Y45.188 I13.445 J.742 E.21188
M204 P3000
G1 X90.691 Y45.387 F21000
M204 P500
G1 F900
G3 X102.386 Y38.029 I11.717 J5.649 E.5813
G1 X129.615 Y38.029 E1.08662
G3 X142.581 Y50.327 I-.022 J13.008 E.78617
G1 X144.187 Y80.381 E1.20107
G2 X144.745 Y90.744 I30.981 J3.528 E.41609
M73 Q0 S101
G1 X148.789 Y166.293 E3.01922
G3 X135.826 Y179.971 I-12.973 J.687 E.84138
M73 P0 R90
G1 X96.173 Y179.971 E1.58242
G3 X83.211 Y166.293 I.011 J-12.991 E.84135
M73 Q0 S101
G1 X87.255 Y90.744 E3.01922
G2 X87.813 Y80.381 I-30.424 J-6.835 E.41609
G1 X89.419 Y50.326 E1.20111
G3 X90.665 Y45.441 I12.989 J.71 E.20247
M204 P3000
G1 X91.077 Y45.637 F21000
M204 P500
G1 F900
G3 X102.392 Y38.486 I11.33 J5.398 E.56341
G1 X129.61 Y38.486 E1.08618
G3 X142.125 Y50.357 I-.017 J12.549 E.75894
G1 X143.729 Y80.389 E1.20018
G2 X144.289 Y90.783 I31.102 J3.537 E.41733
G1 X148.332 Y166.312 E3.01842
G3 X135.821 Y179.514 I-12.515 J.669 E.81218
G1 X96.179 Y179.514 E1.58198
G3 X83.668 Y166.312 I.004 J-12.533 E.81218
G1 X87.711 Y90.783 E3.01842
G2 X88.271 Y80.389 I-30.542 J-6.857 E.41733
G1 X89.876 Y50.357 E1.20019
G3 X91.052 Y45.692 I12.531 J.678 E.19318
M204 P3000
G1 X91.465 Y45.886 F21000
M204 P500
G1 F900
G3 X102.398 Y38.943 I10.941 J5.148 E.54542
G1 X129.604 Y38.943 E1.0857
G3 X141.668 Y50.388 I-.01 J12.091 E.73174
M73 P0 R90
G1 X143.272 Y80.396 E1.19923
G2 X143.833 Y90.822 I31.223 J3.547 E.41861
G1 X147.875 Y166.332 E3.01766
G3 X135.816 Y179.057 I-12.057 J.65 E.78293
G1 X96.184 Y179.057 E1.58158
G3 X84.125 Y166.332 I-.002 J-12.075 E.78293
M73 Q0 S101
G1 X88.167 Y90.822 E3.01766
G2 X88.728 Y80.396 I-30.662 J-6.879 E.41861
G1 X90.332 Y50.387 E1.19927
G3 X91.44 Y45.94 I12.074 J.647 E.184
M204 P3000
G1 X91.854 Y46.133 F21000
M204 P500
G1 F900
G3 X102.404 Y39.4 I10.551 J4.9 E.52735
G1 X129.599 Y39.4 E1.08526
G3 X141.212 Y50.418 I-.004 J11.634 E.70451
G1 X142.815 Y80.404 E1.19835
G2 X143.378 Y90.862 I31.345 J3.556 E.41989
G1 X147.419 Y166.351 E3.01683
G3 X135.811 Y178.6 I-11.601 J.631 E.75377
G1 X96.19 Y178.6 E1.58114
G3 X84.581 Y166.351 I-.009 J-11.618 E.75381
G1 X88.622 Y90.862 E3.01683
G2 X89.185 Y80.404 I-30.782 J-6.902 E.41989
G1 X90.788 Y50.418 E1.19835
G3 X91.829 Y46.187 I11.617 J.615 E.17491
M204 P3000
G1 X92.244 Y46.378 F21000
M204 P500
G1 F900
G3 X102.41 Y39.857 I10.16 J4.654 E.50919
G1 X129.593 Y39.857 E1.08478
G3 X140.756 Y50.448 I.003 J11.176 E.67732
G1 X142.357 Y80.411 E1.19743
G2 X142.923 Y90.907 I31.497 J3.567 E.42141
G1 X146.962 Y166.37 E3.01579
G3 X135.805 Y178.143 I-11.143 J.613 E.7246
M73 P0 R90
G1 X96.195 Y178.143 E1.5807
G3 X85.038 Y166.37 I-.014 J-11.16 E.7246
M73 P0 R90
G1 X89.077 Y90.907 E3.01579
G2 X89.643 Y80.411 I-30.931 J-6.929 E.42141
M73 Q0 S101
G1 X91.244 Y50.449 E1.19739
G3 X92.219 Y46.432 I11.16 J.583 E.16591
M204 P3000
G1 X92.636 Y46.62 F21000
M204 P500
G1 F900
G3 X102.415 Y40.314 I9.767 J4.412 E.49085
G1 X129.587 Y40.314 E1.08434
G3 X140.3 Y50.479 I.01 J10.718 E.65017
M73 Q0 S101
G1 X141.9 Y80.417 E1.19643
G2 X142.467 Y90.951 I31.647 J3.578 E.42293
G1 X146.505 Y166.39 E3.01483
G3 X135.8 Y177.686 I-10.685 J.594 E.69535
G1 X96.2 Y177.686 E1.5803
G3 X85.495 Y166.39 I-.02 J-10.702 E.69535
G1 X89.533 Y90.951 E3.01483
G2 X90.1 Y80.417 I-31.08 J-6.956 E.42293
G1 X91.7 Y50.479 E1.19643
G3 X92.611 Y46.675 I10.703 J.553 E.15698
M204 P3000
G1 X93.028 Y46.861 F21000
M204 P500
G1 F900
G3 X102.421 Y40.771 I9.374 J4.17 E.47253
G1 X129.582 Y40.772 E1.0839
G3 X139.844 Y50.509 I.016 J10.259 E.6229
G1 X141.443 Y80.424 E1.19551
G2 X142.012 Y90.997 I31.813 J3.589 E.42449
G1 X146.049 Y166.409 E3.01375
G3 X135.795 Y177.229 I-10.228 J.575 E.66619
G1 X96.205 Y177.229 E1.5799
G3 X85.951 Y166.409 I-.026 J-10.245 E.66619
G1 X89.988 Y90.997 E3.01375
G2 X90.557 Y80.424 I-31.244 J-6.984 E.42449
G1 X92.156 Y50.509 E1.19551
G3 X93.004 Y46.916 I10.246 J.522 E.14813
M204 P3000
G1 E-.49 F2700
;WIPE_START
G1 F16800
G1 X93.028 Y46.861 E-.00916
G3 X93.638 Y45.697 I9.374 J4.17 E-.20084
;WIPE_END
G1 Z.4 F720
M486 S0
G1 X117.895 Y141.651 F21000
G1 Z.2 F720
G1 E.7 F1500
M204 P500
;TYPE:External perimeter
;WIDTH:0.499999
G1 F900
G1 X117.88 Y141.686 E.00152
G1 X117.721 Y141.75 E.00684
G1 X91.279 Y141.75 E1.05521
G1 X91.115 Y141.681 E.0071
M73 P0 R90
G1 X91.05 Y141.521 E.00689
G1 X91.05 Y96.61 E1.79224
;WIDTH:0.537995
G1 X91.031 Y96.51 E.0044
;WIDTH:0.575991
G1 X91.012 Y96.411 E.00469
;WIDTH:0.613987
G1 X90.993 Y96.311 E.00508
;WIDTH:0.651983
G1 X90.974 Y96.211 E.00541
G1 X90.991 Y94.945 E.06733
;WIDTH:0.618123
G1 X91.008 Y93.679 E.06358
;WIDTH:0.584263
G1 X91.143 Y93.564 E.00838
;WIDTH:0.542131
G1 X91.279 Y93.45 E.00773
;WIDTH:0.499999
G1 X117.721 Y93.45 E1.05521
G1 X117.882 Y93.516 E.00694
G1 X117.95 Y93.679 E.00705
G1 X117.95 Y141.521 E1.90921
G1 X117.919 Y141.596 E.00324
M204 P3000
G1 E-.49 F2700
;WIPE_START
G1 F16800
G1 X117.895 Y141.651 E-.00916
G1 X117.88 Y141.686 E-.00581
G1 X117.721 Y141.75 E-.02617
G1 X116.615 Y141.75 E-.16886
;WIPE_END
G1 Z.4 F720
G1 X90.517 Y101.893 F21000
G1 Z.2 F720
G1 E.7 F1500
M204 P500
;TYPE:Perimeter
;WIDTH:0.650858
G1 F900
G1 X90.541 Y101.013 E.04673
;WIDTH:0.603762
G1 X90.565 Y100.132 E.04315
;WIDTH:0.556665
G1 X90.588 Y99.252 E.03948
;WIDTH:0.509568
G1 X90.612 Y98.371 E.03591
;WIDTH:0.462472
G1 X90.635 Y97.491 E.03225
;WIDTH:0.415375
G1 X90.659 Y96.61 E.02866
M204 P3000
G1 E-.49 F2700
;WIPE_START
G1 F16800
G1 X90.635 Y97.491 E-.13456
G1 X90.622 Y97.985 E-.07544
;WIPE_END
G1 Z.4 F720
G1 X135.759 Y176.193 F21000
G1 Z.2 F720
G1 E.7 F1500
M204 P500
;WIDTH:0.499999
G1 F900
G1 X96.222 Y176.193 E1.57779
G1 X95.289 Y176.152 E.03727
M73 Q0 S101
G3 X91.931 Y175.163 I1.08 J-9.861 E.14043
G3 X89.795 Y173.63 I5.002 J-9.227 E.1052
G3 X88.179 Y171.563 I7.181 J-7.279 E.10499
G3 X87.055 Y168.269 I8.422 J-4.713 E.13966
G3 X86.986 Y166.447 I11.537 J-1.344 E.07284
G1 X89.675 Y116.223 E2.00714
;WIDTH:0.544023
G1 X89.701 Y116.144 E.00364
;WIDTH:0.588046
G1 X89.727 Y116.066 E.00391
;WIDTH:0.632069
G1 X89.754 Y115.987 E.00429
;WIDTH:0.676092
G1 X89.78 Y115.908 E.0046
;WIDTH:0.720115
G1 X89.806 Y115.83 E.00486
G1 X89.874 Y114.137 E.10018
;WIDTH:0.674799
G1 X89.942 Y112.443 E.09353
;WIDTH:0.629482
G1 X90.01 Y110.75 E.08677
;WIDTH:0.584166
G1 X90.078 Y109.057 E.08007
;WIDTH:0.538849
G1 X90.146 Y107.364 E.07336
;WIDTH:0.493533
G1 X90.214 Y105.671 E.06666
;WIDTH:0.448216
G1 X90.282 Y103.978 E.05996
;WIDTH:0.4029
G1 X90.35 Y102.285 E.05325
;WIDTH:0.406463
G1 X90.378 Y102.219 E.00228
;WIDTH:0.455342
G1 X90.406 Y102.154 E.00255
;WIDTH:0.504221
G1 X90.434 Y102.089 E.00285
;WIDTH:0.5531
G1 X90.462 Y102.024 E.00315
;WIDTH:0.601979
G1 X90.49 Y101.958 E.0035
;WIDTH:0.650858
G1 X90.517 Y101.893 E.00374
G1 X90.542 Y101.96 E.0038
;WIDTH:0.601979
G1 X90.566 Y102.026 E.00343
;WIDTH:0.5531
G1 X90.591 Y102.093 E.00319
;WIDTH:0.504221
G1 X90.615 Y102.16 E.00287
;WIDTH:0.455342
G1 X90.64 Y102.226 E.00254
;WIDTH:0.406463
G1 X90.664 Y102.293 E.00226
;WIDTH:0.4029
G1 X90.641 Y103.987 E.05325
;WIDTH:0.448216
G1 X90.619 Y105.682 E.05998
;WIDTH:0.493533
G1 X90.596 Y107.376 E.06665
;WIDTH:0.538849
G1 X90.573 Y109.07 E.07335
;WIDTH:0.584166
G1 X90.551 Y110.765 E.0801
;WIDTH:0.629482
G1 X90.528 Y112.459 E.08676
;WIDTH:0.674799
G1 X90.506 Y114.154 E.09352
;WIDTH:0.720115
G1 X90.483 Y115.848 E.10017
G1 X90.505 Y115.928 E.00491
;WIDTH:0.676092
G1 X90.527 Y116.008 E.00459
;WIDTH:0.632069
G1 X90.549 Y116.088 E.00427
;WIDTH:0.588046
G1 X90.571 Y116.168 E.00395
;WIDTH:0.544023
G1 X90.593 Y116.248 E.00363
;WIDTH:0.499999
G1 X90.593 Y141.521 E1.00856
G1 X90.648 Y141.79 E.01096
G2 X90.962 Y142.129 I.741 J-.371 E.01869
G1 X91.279 Y142.207 E.01303
G1 X117.858 Y142.207 E1.06068
G1 X118.172 Y142.038 E.01423
G1 X118.347 Y141.801 E.01176
G1 X118.407 Y141.521 E.01143
G1 X118.407 Y93.552 E1.91428
G1 X118.247 Y93.239 E.01403
G1 X118.027 Y93.065 E.01119
G1 X117.721 Y92.993 E.01254
G1 X91.279 Y92.993 E1.05521
G1 X90.899 Y93.353 E.02089
G1 X91.01 Y91.289 E.08249
G3 X91.47 Y88.691 I117.57 J19.503 E.10529
G1 X91.721 Y86.363 E.09344
G1 X91.809 Y84 E.09436
G1 X91.722 Y81.643 E.09412
G1 X91.595 Y80.42 E.04907
G1 X93.189 Y50.585 E1.19231
G3 X93.48 Y48.67 I12.77 J.963 E.07737
G3 X94.133 Y46.929 I11.593 J3.353 E.07428
G1 X94.579 Y46.127 E.03662
M73 P0 R90
G3 X96.401 Y44.013 I8.757 J5.703 E.11171
G1 X97.132 Y43.45 E.03682
G1 X97.918 Y42.961 E.03694
G1 X98.752 Y42.556 E.037
G3 X100.529 Y41.993 I4.517 J11.186 E.07446
G1 X101.438 Y41.857 E.03668
G1 X102.44 Y41.807 E.04004
G1 X129.56 Y41.807 E1.08227
G1 X130.562 Y41.857 E.04004
G1 X131.471 Y41.993 E.03668
G3 X134.082 Y42.961 I-2.283 J10.165 E.11146
G1 X134.868 Y43.45 E.03694
G1 X135.599 Y44.013 E.03682
G1 X136.271 Y44.654 E.03706
G3 X137.421 Y46.127 I-8.915 J8.144 E.07465
G1 X137.867 Y46.929 E.03662
G3 X138.52 Y48.67 I-10.941 J5.094 E.07428
G3 X138.811 Y50.585 I-12.479 J2.878 E.07737
G1 X140.405 Y80.42 E1.19231
G1 X140.278 Y81.643 E.04907
G1 X140.192 Y84.025 E.09512
G1 X140.281 Y86.387 E.09433
G1 X140.534 Y88.715 E.09345
G1 X140.982 Y91.13 E.09802
G1 X145.014 Y166.447 E3.00995
G3 X144.945 Y168.269 I-11.607 J.478 E.07284
G3 X143.35 Y172.301 I-9.333 J-1.362 E.1746
G3 X142.205 Y173.63 I-9.895 J-7.361 E.07006
G3 X140.069 Y175.163 I-7.138 J-7.694 E.1052
G3 X136.711 Y176.152 I-4.438 J-8.872 E.14043
G1 X135.819 Y176.191 E.03563
M204 P3000
M204 T250
G1 X135.779 Y176.65 F21000
M204 T7000
M204 P500
;TYPE:External perimeter
G1 F900
G1 X96.211 Y176.65 E1.57902
G1 X95.245 Y176.608 E.03859
G3 X92.552 Y175.945 I1.177 J-10.593 E.11099
G1 X91.721 Y175.57 E.03638
G3 X89.478 Y173.961 I5.244 J-9.678 E.11045
G3 X88.277 Y172.566 I9.179 J-9.117 E.07352
G3 X87.027 Y170.111 I8.374 J-5.812 E.11028
G3 X86.521 Y167.408 I9.548 J-3.185 E.11009
G1 X86.529 Y166.433 E.03891
G1 X90.268 Y96.59 E2.79119
;WIDTH:0.537995
G1 X90.292 Y96.491 E.0044
M73 Q0 S101
;WIDTH:0.575991
G1 X90.317 Y96.392 E.00475
;WIDTH:0.613987
G1 X90.341 Y96.293 E.00508
;WIDTH:0.651983
G1 X90.365 Y96.194 E.00542
G1 X90.417 Y94.911 E.06828
;WIDTH:0.618123
G1 X90.468 Y93.628 E.06448
;WIDTH:0.584263
G1 X90.475 Y93.118 E.02411
;WIDTH:0.542131
G1 X90.481 Y92.609 E.02219
;WIDTH:0.499999
G1 X90.553 Y91.264 E.05375
G1 X90.609 Y90.885 E.01529
G1 X91.017 Y88.626 E.09161
G1 X91.265 Y86.33 E.09216
G1 X91.352 Y84 E.09305
G1 X91.266 Y81.675 E.09285
G1 X91.136 Y80.431 E.04991
G1 X92.733 Y50.548 E1.19423
G1 X92.845 Y49.509 E.0417
G1 X93.038 Y48.554 E.03888
G1 X93.333 Y47.635 E.03852
G1 X93.722 Y46.727 E.03942
G1 X94.192 Y45.883 E.03855
G1 X94.755 Y45.087 E.03891
G1 X95.397 Y44.339 E.03934
G1 X96.103 Y43.666 E.03892
G1 X96.871 Y43.074 E.0387
G1 X97.697 Y42.56 E.03882
G1 X98.572 Y42.135 E.03882
G1 X99.499 Y41.793 E.03943
G1 X100.437 Y41.545 E.03872
G1 X101.393 Y41.401 E.03858
G1 X102.428 Y41.35 E.04135
G1 X129.572 Y41.35 E1.08322
G1 X130.607 Y41.401 E.04135
G1 X131.563 Y41.545 E.03858
G1 X132.501 Y41.793 E.03872
G1 X133.428 Y42.135 E.03943
G1 X134.303 Y42.56 E.03882
G1 X135.129 Y43.074 E.03882
G1 X135.897 Y43.666 E.0387
G1 X136.603 Y44.339 E.03892
G1 X137.245 Y45.087 E.03934
G1 X137.808 Y45.883 E.03891
G1 X138.278 Y46.727 E.03855
G1 X138.667 Y47.635 E.03942
G1 X138.962 Y48.554 E.03852
G1 X139.155 Y49.509 E.03888
G1 X139.267 Y50.548 E.0417
G1 X140.864 Y80.431 E1.19423
G1 X140.734 Y81.675 E.04991
M73 P0 R90
G1 X140.649 Y84.008 E.09316
G1 X140.736 Y86.338 E.09305
G1 X140.984 Y88.634 E.09216
G2 X141.436 Y91.06 I91.948 J-15.869 E.09848
G1 X145.471 Y166.433 E3.01219
G1 X145.479 Y167.408 E.03891
G3 X144.973 Y170.111 I-10.054 J-.482 E.11009
G3 X143.723 Y172.566 I-9.624 J-3.357 E.11028
G3 X142.522 Y173.961 I-10.38 J-7.722 E.07352
G3 X140.279 Y175.57 I-7.487 J-8.07 E.11045
G3 X137.668 Y176.471 I-4.79 J-9.639 E.11053
G1 X136.755 Y176.608 E.03684
G1 X135.839 Y176.648 E.03659
M204 P3000
G1 E-.7 F2700
G1 Z.4 F720
G1 X137.205 Y46.139 F21000
G1 Z.2 F720
G1 E.7 F1500
M204 P500
;TYPE:Solid infill
;WIDTH:0.501228
G1 F6000
G2 X135.346 Y44.308 I-52.827 J51.793 E.10441
G2 X133.894 Y43.302 I-6.782 J8.231 E.07076
G1 X133.554 Y43.137 E.01512
G1 X137.517 Y47.099 E.22423
G1 X137.874 Y47.931 E.03623
