; generated by PrusaSlicer 2.9.4 on 2026-05-04 at 12:03:49 UTC

; 

; external perimeters extrusion width = 0.45mm
; perimeters extrusion width = 0.45mm
; infill extrusion width = 0.45mm
; solid infill extrusion width = 0.45mm
; top infill extrusion width = 0.42mm
; support material extrusion width = 0.40mm
; first layer extrusion width = 0.50mm

M73 P0 R24
M73 Q0 S26
M201 X10000 Y10000 Z400 E5000 ; sets maximum accelerations, mm/sec^2
M203 X350 Y350 Z12 E100 ; sets maximum feedrates, mm / sec
M204 P7000 R2500 T7000 ; sets acceleration (P, T) and retract acceleration (R), mm/sec^2
M205 X10.00 Y10.00 Z2.00 E10.00 ; sets the jerk limits, mm/sec
M205 S0 T0 ; sets the minimum extruding and travel feed rate, mm/sec

M486 S0
M486 Aextras.stl
M486 S-1

;TYPE:Custom
M17 ; enable steppers
M862.1 P0.4 A0 F1 ; nozzle check
M862.3 P "COREONE" ; printer model check
M862.5 P2 ; g-code level check
M862.6 P"Input shaper" ; FW feature check
M115 U6.4.0+11974

M555 X96.521 Y79.7214 W63.9325 H62.7306

G90 ; use absolute coordinates
M83 ; extruder relative mode


M140 S40 ; set bed temp


M109 R170 ; wait for temp

M84 E ; turn off E motor

G28 ; home all without mesh bed level


M141 S20 ; set nominal chamber temp


M106 S70
G0 Z40 F10000
M104 T0 S170
M190 R40 ; wait for bed temp
M107

G29 G ; absorb heat

M109 R170 ; wait for MBL temp

M302 S155 ; lower cold extrusion limit to 155C


G1 E-2 F2400 ; retraction


M84 E ; turn off E motor

G29 P9 X208 Y-2.5 W32 H4

;
; MBL
;
M84 E ; turn off E motor
G29 P1 ; invalidate mbl & probe print area
G29 P1 X150 Y0 W100 H20 C ; probe near purge place
G29 P3.2 ; interpolate mbl probes
G29 P3.13 ; extrapolate mbl outside probe area
G29 A ; activate mbl

; prepare for purge
M104 S210
G0 X249 Y-2.5 Z15 F4800 ; move away and ready for the purge
M109 S210

G92 E0
M569 S0 E ; set spreadcycle mode for extruder

M591 S0 ; disable stuck detection

;
; Extrude purge line
;
G92 E0 ; reset extruder position
G1 E2 F2400 ; deretraction after the initial one
G0 E5 X235 Z0.2 F500 ; purge
G0 X225 E4 F500 ; purge
G0 X215 E4 F650 ; purge
G0 X205 E4 F800 ; purge
M73 Q0 S25
G0 X202 Z0.05 F8000 ; wipe, move close to the bed
G0 X199 Z0.2 F8000 ; wipe, move quickly away from the bed

M591 R ; restore stuck detection

G92 E0
M221 S100 ; set flow to 100%
G21 ; set units to millimeters
G90 ; use absolute coordinates
M83 ; use relative distances for extrusion
M572 S0.036 ; Filament gcode

M142 S36 ; set heatbreak target temp
M106 S255
;LAYER_CHANGE
;Z:0.2
;HEIGHT:0.2
G1 E-.7 F2700
G1 Z.4 F720
G1 X126.678 Y89.324 F21000
G1 Z.2 F720
G1 E.7 F1500
M204 P500
;TYPE:Skirt/Brim
;WIDTH:0.5
G1 F900
G3 X129.049 Y87.589 I3.979 J2.95 E.11904
G1 X129.732 Y87.439 E.02791
G1 X139.515 Y87.41 E.39041
G3 X140.537 Y87.21 I1.379 J4.324 E.04165
G1 X145.23 Y87.214 E.18728
G1 X146.2 Y87.411 E.0395
G1 X156.152 Y87.462 E.39716
G3 X159.796 Y91.543 I-.859 J4.434 E.23454
M73 P1 R24
G1 X159.796 Y137.686 E1.84141
G3 X159.026 Y139.885 I-4.816 J-.451 E.0939
M73 P1 R23
M73 Q1 S25
G1 X157.982 Y140.954 E.05963
G3 X155.733 Y141.79 I-2.724 J-3.887 E.0968
G1 X130.019 Y141.794 E1.02616
G3 X127.821 Y141.025 I.451 J-4.816 E.09385
G1 X126.751 Y139.98 E.05969
G3 X125.911 Y137.687 I3.908 J-2.732 E.09855
G1 X125.911 Y91.518 E1.84245
G3 X126.645 Y89.374 I4.812 J.45 E.09128
M204 P3000
M204 T7000
G1 X127.037 Y89.637 F21000
M204 P500
G1 F900
G3 X129.804 Y87.891 I3.354 J2.248 E.13443
G1 X139.592 Y87.867 E.39061
G3 X140.555 Y87.667 I1.259 J3.634 E.03936
G1 X145.211 Y87.671 E.18581
G3 X146.121 Y87.868 I-.352 J3.84 E.03725
G1 X156.065 Y87.911 E.39684
G3 X159.339 Y91.561 I-.765 J3.979 E.21016
G1 X159.339 Y137.664 E1.83982
G3 X158.646 Y139.63 I-4.3 J-.41 E.08402
M73 P2 R23
G3 X157.197 Y140.903 I-4.242 J-3.366 E.07738
G3 X155.665 Y141.337 I-2.079 J-4.418 E.06383
G1 X130.041 Y141.337 E1.02257
G3 X128.076 Y140.645 I.41 J-4.299 E.08396
M73 Q2 S25
G3 X126.802 Y139.195 I3.365 J-4.242 E.07744
G3 X126.368 Y137.664 I4.418 J-2.078 E.06379
G1 X126.368 Y91.54 E1.84065
G3 X127.004 Y89.687 I4.023 J.345 E.07897
M204 P3000
G1 X127.387 Y89.935 F21000
M204 P500
G1 F900
G3 X129.877 Y88.343 I2.997 J1.944 E.12159
G1 X139.673 Y88.324 E.39093
G3 X140.573 Y88.124 I1.153 J3.059 E.03692
G1 X145.19 Y88.128 E.18425
G3 X146.039 Y88.324 I-.296 J3.216 E.03488
G1 X155.978 Y88.361 E.39663
G3 X158.882 Y91.58 I-.67 J3.523 E.18578
G1 X158.882 Y137.642 E1.83818
G3 X158.266 Y139.375 I-3.784 J-.369 E.07413
G3 X157 Y140.49 I-3.781 J-3.014 E.06767
G3 X155.643 Y140.88 I-1.841 J-3.853 E.05661
G1 X130.063 Y140.88 E1.02081
G3 X128.33 Y140.264 I.369 J-3.783 E.07413
G3 X127.215 Y138.999 I3.014 J-3.781 E.06764
G3 X126.825 Y137.641 I3.853 J-1.841 E.05664
G1 X126.825 Y91.562 E1.83886
G3 X127.354 Y89.986 I3.559 J.317 E.06695
M73 P3 R23
M204 P3000
G1 X127.741 Y90.227 F21000
M204 P500
G1 F900
G3 X129.947 Y88.795 I2.636 J1.646 E.10837
G1 X139.757 Y88.781 E.39148
G3 X140.591 Y88.581 I1.06 J2.58 E.03436
G1 X145.17 Y88.585 E.18273
G3 X145.953 Y88.781 I-.264 J2.718 E.03233
M73 Q3 S25
G1 X155.892 Y88.811 E.39663
G3 X158.424 Y91.598 I-.577 J3.068 E.1613
G1 X158.424 Y137.619 E1.83654
G3 X157.886 Y139.119 I-3.268 J-.327 E.06423
G3 X156.325 Y140.283 I-2.73 J-2.034 E.07881
G1 X155.621 Y140.423 E.02864
G1 X130.086 Y140.423 E1.01902
G3 X128.587 Y139.885 I.327 J-3.269 E.0642
G3 X127.423 Y138.323 I2.033 J-2.73 E.07884
G1 X127.282 Y137.619 E.02865
G1 X127.282 Y91.585 E1.83706
G3 X127.71 Y90.278 I3.095 J.288 E.05534
M204 P3000
G1 X128.101 Y90.512 F21000
M204 P500
G1 F900
G3 X130.017 Y89.247 I2.269 J1.355 E.09478
G1 X139.844 Y89.238 E.39216
G3 X140.61 Y89.038 I.98 J2.185 E.03174
G1 X145.148 Y89.042 E.1811
G3 X145.864 Y89.238 I-.251 J2.327 E.02975
G1 X155.807 Y89.261 E.39679
G3 X157.967 Y91.615 I-.485 J2.613 E.13677
M73 P4 R23
G1 X157.967 Y137.597 E1.83499
G3 X155.598 Y139.966 I-2.626 J-.258 E.14484
G1 X130.109 Y139.966 E1.01718
G3 X127.74 Y137.597 I.257 J-2.627 E.14484
M73 Q4 S25
G1 X127.74 Y91.607 E1.83531
G3 X128.071 Y90.564 I2.63 J.26 E.04399
M204 P3000
G1 X128.467 Y90.788 F21000
M204 P500
G1 F900
G3 X130.088 Y89.699 I1.898 J1.074 E.0808
G1 X139.935 Y89.695 E.39296
G3 X140.631 Y89.495 I.914 J1.871 E.02905
G1 X145.125 Y89.5 E.17934
G3 X145.772 Y89.695 I-.263 J2.038 E.02709
G1 X155.725 Y89.711 E.39719
G3 X157.51 Y91.632 I-.397 J2.16 E.11215
G1 X157.51 Y137.574 E1.83339
G3 X155.576 Y139.509 I-2.166 J-.231 E.11804
M73 Q4 S24
G1 X130.131 Y139.509 E1.01542
G3 X128.197 Y137.574 I.232 J-2.166 E.11804
M73 P5 R23
G1 X128.197 Y91.63 E1.83347
G3 X128.438 Y90.841 I2.168 J.232 E.03312
M73 P5 R22
M204 P3000
G1 X128.841 Y91.054 F21000
M204 P500
G1 F900
G3 X130.154 Y90.152 I1.519 J.804 E.0661
G1 X140.03 Y90.152 E.39412
G3 X140.652 Y89.952 I.873 J1.651 E.02621
M73 Q5 S24
G1 X145.1 Y89.957 E.1775
G1 X145.677 Y90.152 E.02431
G1 X155.647 Y90.162 E.39787
G3 X157.053 Y91.651 I-.313 J1.705 E.08743
G1 X157.053 Y137.552 E1.83175
G3 X155.553 Y139.052 I-1.706 J-.206 E.09124
G1 X130.154 Y139.052 E1.01359
G3 X128.654 Y137.552 I.206 J-1.706 E.09123
G1 X128.654 Y91.652 E1.83171
G3 X128.814 Y91.108 I1.706 J.206 E.02273
M73 P6 R22
M204 P3000
G1 X129.224 Y91.307 F21000
M204 P500
G1 F900
G3 X130.176 Y90.609 I1.136 J.551 E.04902
G1 X140.128 Y90.609 E.39715
G1 X140.676 Y90.409 E.02328
G1 X145.073 Y90.414 E.17547
G1 X145.579 Y90.609 E.02164
G1 X155.573 Y90.614 E.39883
G3 X156.596 Y91.672 I-.234 J1.25 E.06263
G1 X156.596 Y137.529 E1.83
G3 X155.531 Y138.595 I-1.249 J-.183 E.06444
G1 X130.176 Y138.595 E1.01183
G3 X129.111 Y137.529 I.184 J-1.249 E.06444
M73 Q6 S24
G1 X129.111 Y91.675 E1.82988
G3 X129.199 Y91.361 I1.249 J.183 E.01305
M204 P3000
G1 X129.617 Y91.542 F21000
M204 P500
G1 F900
G3 X130.199 Y91.066 I.75 J.324 E.03118
G1 X140.31 Y91.066 E.4035
G1 X140.699 Y90.866 E.01746
G1 X145.052 Y90.875 E.17371
G1 X145.397 Y91.066 E.01574
G1 X155.508 Y91.066 E.4035
G3 X156.139 Y91.697 I-.169 J.8 E.03767
G1 X156.139 Y137.507 E1.82812
G3 X155.508 Y138.138 I-.8 J-.169 E.03767
M73 P7 R22
G1 X130.199 Y138.138 E1.01
G3 X129.568 Y137.507 I.168 J-.8 E.03767
G1 X129.568 Y91.697 E1.82812
G3 X129.595 Y91.598 I.799 J.169 E.0041
M204 P3000
G1 X130.028 Y91.755 F21000
M204 P500
G1 F900
G3 X130.267 Y91.523 I.358 J.129 E.01376
G1 X140.24 Y91.523 E.39799
G1 X140.436 Y91.605 E.00848
G1 X140.767 Y91.323 E.01735
G1 X144.94 Y91.323 E.16653
G1 X145.271 Y91.605 E.01735
G1 X145.467 Y91.523 E.00848
G1 X155.44 Y91.523 E.39799
G3 X155.682 Y91.765 I-.119 J.361 E.01417
G1 X155.682 Y137.439 E1.8227
G3 X155.44 Y137.68 I-.361 J-.119 E.01414
M73 Q7 S24
G1 X130.267 Y137.68 E1.00457
G3 X130.025 Y137.439 I.119 J-.36 E.01414
G1 X130.025 Y91.814 E1.82074
M204 P3000
G1 E-.49 F2700
M73 P8 R22
;WIPE_START
G1 F16800
G1 X130.028 Y91.755 E-.00902
G3 X130.267 Y91.523 I.358 J.129 E-.05264
G1 X131.239 Y91.523 E-.14834
;WIPE_END
G1 Z.4 F720
G1 X140.482 Y92.976 F21000
G1 Z.2 F720
G1 E.7 F1500
M204 P500
G1 F900
G1 X145.225 Y92.976 E.18928
G1 X145.225 Y94.523 E.06174
G1 X140.482 Y94.523 E.18928
G1 X140.482 Y93.036 E.05934
M204 P3000
G1 X140.939 Y93.433 F21000
M204 P500
G1 F900
G1 X144.768 Y93.433 E.1528
G1 X144.768 Y94.066 E.02526
G1 X140.939 Y94.066 E.1528
G1 X140.939 Y93.493 E.02287
M204 P3000
G1 E-.49 F2700
;WIPE_START
G1 F16800
G1 X140.939 Y93.433 E-.00916
G1 X142.254 Y93.433 E-.20084
;WIPE_END
G1 Z.4 F720
G1 X111.692 Y92.028 F21000
G1 Z.2 F720
G1 E.7 F1500
M204 P500
G1 F900
G3 X109.421 Y96.959 I-7.282 J-.365 E.22199
G3 X97.183 Y91.414 I-4.956 J-5.34 E.68237
G3 X106.1 Y84.57 I7.302 J.282 E.51178
G3 X111.694 Y91.968 I-1.69 J7.093 E.40115
M204 P3000
G1 X111.239 Y91.947 F21000
M204 P500
G1 F900
G3 X97.724 Y92.742 I-6.799 J-.302 E.7973
G3 X104.177 Y84.845 I6.771 J-1.052 E.45899
G3 X111.241 Y91.888 I.263 J6.8 E.44678
M204 P3000
G1 X110.785 Y91.871 F21000
M204 P500
G1 F900
G3 X101.092 Y86.255 I-6.342 J-.227 E1.04359
M73 Q8 S24
G3 X104.666 Y85.302 I3.434 J5.7 E.14958
G3 X110.787 Y91.811 I-.223 J6.342 E.39556
M204 P3000
G1 X110.333 Y91.799 F21000
M204 P500
G1 F900
G3 X102.387 Y86.125 I-5.888 J-.155 E1.01761
G3 X104.243 Y85.757 I2.303 J6.757 E.07573
G3 X110.334 Y91.739 I.202 J5.887 E.38107
M204 P3000
G1 X109.873 Y91.732 F21000
M73 Q8 S23
M204 P500
G1 F900
G3 X102.529 Y86.56 I-5.433 J-.086 E.94043
M73 P9 R22
G3 X104.632 Y86.216 I1.991 J5.575 E.0855
G3 X109.874 Y91.672 I-.192 J5.43 E.33399
M204 P3000
G1 X109.417 Y91.67 F21000
M204 P500
G1 F900
G3 X103.597 Y86.739 I-4.978 J-.025 E.90126
G1 X104.308 Y86.669 E.02851
G3 X109.417 Y91.61 I.131 J4.976 E.31588
M204 P3000
G1 X108.961 Y91.613 F21000
M204 P500
G1 F900
G3 X102.818 Y87.428 I-4.521 J.034 E.78528
G3 X104.594 Y87.129 I1.694 J4.648 E.07227
G3 X108.96 Y91.553 I-.154 J4.518 E.27349
M73 P9 R21
M204 P3000
G1 X108.51 Y91.562 F21000
M204 P500
G1 F900
G3 X103.727 Y87.645 I-4.064 J.084 E.7389
G1 X104.37 Y87.582 E.02578
G3 X108.508 Y91.502 I.076 J4.064 E.25207
M204 P3000
G1 X108.038 Y91.519 F21000
M204 P500
G1 F900
G3 X103.794 Y88.098 I-3.605 J.13 E.65804
G1 X104.549 Y88.043 E.03021
G3 X108.036 Y91.459 I-.116 J3.606 E.21395
M204 P3000
G1 X107.599 Y91.482 F21000
M204 P500
G1 F900
G3 X103.86 Y88.55 I-3.148 J.165 E.57557
G1 X104.426 Y88.495 E.02269
G3 X107.595 Y91.422 I.025 J3.152 E.1896
M73 Q9 S23
M204 P3000
G1 E-.49 F2700
;WIPE_START
G1 F16800
G1 X107.599 Y91.482 E-.00918
G3 X107.396 Y92.772 I-3.148 J.165 E-.20082
;WIPE_END
G1 Z.4 F720
M486 S0
G1 X103.642 Y93.605 F21000
G1 Z.2 F720
G1 E.7 F1500
M204 P500
;TYPE:External perimeter
;WIDTH:0.49938
G1 F900
G3 X103.255 Y93.4 I.815 J-2.009 E.01748
;WIDTH:0.499318
G3 X102.369 Y92.043 I1.271 J-1.797 E.06613
G3 X102.969 Y90.139 I2.135 J-.374 E.08266
G3 X104.091 Y89.568 I1.537 J1.634 E.05085
;WIDTH:0.499641
G3 X104.886 Y89.579 I.362 J2.43 E.03184
;WIDTH:0.49938
G3 X105.964 Y90.17 I-.517 J2.221 E.04961
G3 X106.523 Y92.087 I-1.568 J1.498 E.0827
G3 X105.24 Y93.617 I-2.116 J-.471 E.0827
G3 X103.698 Y93.627 I-.783 J-2.021 E.06283
M204 P3000
G1 E-.49 F2700
;WIPE_START
G1 F16800
G1 X103.642 Y93.605 E-.00919
G3 X103.255 Y93.4 I.816 J-2.008 E-.06698
G3 X102.657 Y92.767 I1.271 J-1.798 E-.13383
;WIPE_END
G1 Z.4 F720
G1 X102.304 Y92.957 F21000
G1 X102.119 Y90.694
G1 X103.972 Y89.178
G1 X104.956 Y89.183
G1 X105.18 Y89.252
G1 X105.197 Y89.199
G1 Z.2 F720
G1 E.7 F1500
M204 P500
;WIDTH:0.500419
G1 F900
G1 X105.457 Y89.281 E.01089
G1 X105.9 Y89.523 E.02016
G1 X106.288 Y89.846 E.02017
G1 X106.605 Y90.24 E.0202
G1 X106.839 Y90.687 E.02015
G1 X106.981 Y91.171 E.02015
G1 X107.026 Y91.674 E.02017
;WIDTH:0.500418
G1 X106.972 Y92.176 E.02017
G1 X106.822 Y92.658 E.02016
G1 X106.58 Y93.102 E.0202
G1 X106.256 Y93.489 E.02016
G1 X105.863 Y93.806 E.02017
G1 X105.415 Y94.04 E.02019
G1 X104.931 Y94.183 E.02016
G1 X104.428 Y94.228 E.02017
G1 X103.926 Y94.174 E.02017
G1 X103.444 Y94.023 E.02018
G1 X103.001 Y93.781 E.02016
G1 X102.613 Y93.457 E.02019
G1 X102.296 Y93.064 E.02017
G1 X102.062 Y92.617 E.02015
G1 X101.92 Y92.132 E.02019
G1 X101.875 Y91.63 E.02013
G1 X101.928 Y91.127 E.0202
G1 X102.079 Y90.645 E.02018
G1 X102.321 Y90.202 E.02016
G1 X102.645 Y89.815 E.02016
G1 X103.038 Y89.498 E.02017
G1 X103.485 Y89.264 E.02015
;WIDTH:0.502494
G1 X103.97 Y89.123 E.02027
G1 X104.472 Y89.079 E.02022
;WIDTH:0.500419
G1 X104.975 Y89.13 E.02019
G1 X105.139 Y89.181 E.00686
M204 P3000
G1 E-.49 F2700
;WIPE_START
G1 F16800
G1 X105.197 Y89.199 E-.00927
G1 X105.457 Y89.281 E-.04162
G1 X105.9 Y89.523 E-.07707
G1 X106.288 Y89.846 E-.07708
G1 X106.308 Y89.871 E-.00496
;WIPE_END
G1 Z.4 F720
G1 X106.263 Y89.908 F21000
G1 X130.839 Y93.247
G1 X139.668 Y95.338
G1 X146.039 Y95.338
G1 X146.062 Y95.343
G1 Z.2 F720
G1 E.7 F1500
M204 P500
;TYPE:Perimeter
;WIDTH:0.499999
G1 F900
G1 X146.2 Y95.156 E.00927
G1 X146.261 Y94.873 E.01155
G1 X146.261 Y92.559 E.09234
G1 X154.646 Y92.559 E.33462
G1 X154.646 Y136.645 E1.75932
G1 X131.061 Y136.645 E.9412
M73 P10 R21
G1 X131.061 Y92.559 E1.75932
G1 X139.446 Y92.559 E.33462
G1 X139.446 Y94.873 E.09234
G1 X139.507 Y95.156 E.01155
G1 X139.678 Y95.387 E.01147
G2 X140.132 Y95.559 I.506 J-.652 E.01966
G1 X145.71 Y95.559 E.2226
G1 X146.025 Y95.389 E.01428
M204 P3000
M204 T250
G1 X145.709 Y95.043 F21000
M204 T7000
M204 P500
;TYPE:External perimeter
G1 F900
G1 X145.748 Y95.023 E.00175
G1 X145.803 Y94.873 E.00638
G1 X145.803 Y92.102 E.11058
G1 X155.103 Y92.102 E.37113
G1 X155.103 Y137.102 E1.7958
G1 X130.603 Y137.102 E.97771
M73 Q10 S23
G1 X130.603 Y92.102 E1.7958
G1 X139.903 Y92.102 E.37113
M73 P11 R21
G1 X139.903 Y94.917 E.11234
G1 X139.981 Y95.045 E.00598
G1 X140.132 Y95.102 E.00644
G1 X145.592 Y95.102 E.21789
G1 X145.655 Y95.07 E.00282
M204 P3000
G1 E-.7 F2700
G1 Z.4 F720
G1 X153.533 Y92.742 F21000
G1 Z.2 F720
G1 E.7 F1500
M204 P500
;TYPE:Solid infill
;WIDTH:0.5031
G1 F6000
G1 X154.258 Y93.467 E.04119
G1 X154.258 Y94.118 E.02616
G1 X153.088 Y92.948 E.06648
G1 X152.437 Y92.948 E.02616
G1 X154.258 Y94.768 E.10344
G1 X154.258 Y95.419 E.02616
G1 X151.786 Y92.948 E.14043
G1 X151.136 Y92.948 E.02612
G1 X154.258 Y96.07 E.17739
G1 X154.258 Y96.721 E.02616
G1 X150.485 Y92.948 E.21438
G1 X149.834 Y92.948 E.02616
G1 X154.258 Y97.371 E.25134
G1 X154.258 Y98.022 E.02616
G1 X149.183 Y92.948 E.28833
G1 X148.532 Y92.948 E.02616
G1 X154.258 Y98.673 E.32532
G1 X154.258 Y99.324 E.02616
G1 X147.882 Y92.948 E.36228
G1 X147.231 Y92.948 E.02616
G1 X154.258 Y99.975 E.39927
G1 X154.258 Y100.625 E.02612
G1 X146.649 Y93.017 E.43231
G1 X146.649 Y93.667 E.02612
G1 X154.258 Y101.276 E.43234
G1 X154.258 Y101.927 E.02616
G1 X146.649 Y94.318 E.43234
G3 X146.64 Y94.96 I-7.156 J.218 E.02581
G1 X154.258 Y102.578 E.43285
G1 X154.258 Y103.229 E.02616
G1 X146.48 Y95.451 E.44194
G3 X146.151 Y95.773 I-.839 J-.532 E.01867
G1 X154.258 Y103.879 E.46061
G1 X154.258 Y104.53 E.02616
G1 X145.668 Y95.94 E.48808
G1 X145.024 Y95.948 E.02588
G1 X154.258 Y105.181 E.52464
G1 X154.258 Y105.832 E.02616
G1 X144.374 Y95.948 E.5616
G1 X143.723 Y95.948 E.02616
G1 X154.258 Y106.483 E.59859
G1 X154.258 Y107.133 E.02612
G1 X143.072 Y95.948 E.63555
G1 X142.421 Y95.948 E.02616
G1 X154.258 Y107.784 E.67254
G1 X154.258 Y108.435 E.02616
G1 X141.77 Y95.948 E.70953
G1 X141.12 Y95.948 E.02612
G1 X154.258 Y109.086 E.74649
G1 X154.258 Y109.737 E.02616
G1 X140.263 Y95.742 E.79519
M204 P3000
G1 E-.7 F2700
G1 Z.4 F720
G1 X139.264 Y93.441 F21000
